public/images/icons/buildings.svg

<svg width="32" height="32" viewBox="0 0 32 32" fill="none" xmlns="http://www.w3.org/2000/svg">
<g clip-path="url(#clip0_16604_1641)">
<path d="M19.9978 6.57759L23.0357 6.57759V13.9925L13.625 14.8125V32L1.09375 32V6.57759H3.28795V1.28125H19.9978V6.57759Z" fill="#9394A0" fill-opacity="0.15"/>
<path d="M0.739624 31.25V6.00862H3.8948M22.8258 14.4224V6.00862H19.6707M3.8948 6.00862V0.75H19.6707V6.00862M3.8948 6.00862H19.6707" stroke="#9394A0" stroke-width="1.5" stroke-linecap="round" stroke-linejoin="round"/>
<path d="M13.375 31.25V15.4224C13.375 14.8701 13.8227 14.4224 14.375 14.4224H30.2543C30.8066 14.4224 31.2543 14.8701 31.2543 15.4224V31.25" stroke="#9394A0" stroke-width="1.5" stroke-linecap="round" stroke-linejoin="round"/>
<path d="M19.8147 19.8362H24.8147" stroke="#9394A0" stroke-width="1.5" stroke-linecap="round" stroke-linejoin="round"/>
<path d="M6.28271 10.25H17.2827" stroke="#9394A0" stroke-width="1.5" stroke-linecap="round" stroke-linejoin="round"/>
<path d="M19.8147 25.8362H24.8147" stroke="#9394A0" stroke-width="1.5" stroke-linecap="round" stroke-linejoin="round"/>
</g>
<defs>
<clipPath id="clip0_16604_1641">
<rect width="32" height="32" fill="white"/>
</clipPath>
</defs>
</svg>

<svg xmlns="http://www.w3.org/2000/svg" width="32" height="32" fill="none"><g clip-path="url(#a)"><path fill="#9394a0" fill-opacity=".15" d="M19.998 6.578h3.038v7.414l-9.411.82V32H1.094V6.578h2.194V1.28h16.71z"/><path stroke="#9394a0" stroke-linecap="round" stroke-linejoin="round" stroke-width="1.5" d="M.74 31.25V6.009h3.155m18.93 8.413V6.01h-3.154m-15.776 0V.75H19.67v5.259m-15.776 0H19.67M13.375 31.25V15.422a1 1 0 0 1 1-1h15.88a1 1 0 0 1 1 1V31.25m-11.44-11.414h5M6.283 10.25h11m2.532 15.586h5"/></g><defs><clipPath id="a"><path fill="#fff" d="M0 0h32v32H0z"/></clipPath></defs></svg>
